X: 31916
T: Peacock's Feathers, The
R: hornpipe
M: 4/4
K: Gmajor
ed|:cABG A2AB|cBce d2cd|eaag aged|c2EF G2ed|
(3cBA (3BAG A2AB|cB (3cde d2cd|eaab aged|1 c2A2 A2 ed:|2 cAAG A2ef||
g3e a3g|agec d2cd|eaag aged|c2 EF G2ed|
cABG A2AB|cABc d2cd|eaag aged|1 c2AG A2 ef|2 cAAG A2:|

